X: 24
T:O'Donnel Abu
R:march
Z:John Chambers <jc@eddie.mit.edu>
M:2/4
L:1/8
K:G
G2 Bc|d2 Bd|b2 ge|d2 cB|A2 AB|c2 BA|G2 Bc|d4|
G2 Bc|d2 Bd|b2 ge|d2 cB|A2 a>g|fd ef|g2 g>a|g4|
b2 ba|ge d2|g2 ge|dB G2|c2 cc|Bd-dB|A2 AB|A4|
G2 Bc|de d2|b2 ge|dd cB|A2 a>g|fd ef|g2 g>a|g4||
